lib/healthicons/icons/outline/people/diabetes.svg

<svg fill="none" height="48" viewBox="0 0 48 48" width="48" xmlns="http://www.w3.org/2000/svg"><g fill="#333"><path clip-rule="evenodd" d="m33.9299 24.0801h6.7501c1.8336 0 3.32-1.4864 3.32-3.32 0-1.8335-1.4864-3.3199-3.32-3.3199h-16.9256l2.2858-.836c2.2009-.8049 2.8345-3.615 1.1919-5.2865-.8842-.8998-2.212-1.2011-3.3979-.771l-11.9841 4.3457c-4.71203 1.7087-7.8501 6.1847-7.8501 11.197 0 6.578 5.3325 11.9105 11.9105 11.9105h11.0635c1.6568 0 3-1.3431 3-3v-.6399c0-.3507-.0602-.6873-.1708-1h.5416c1.6568 0 3-1.3432 3-3v-.64c0-.5843-.1671-1.1297-.4561-1.5908.7354-.5468 1.2119-1.4223 1.2119-2.4092v-.6399c0-.3506-.0602-.6872-.1707-1zm8.0701-3.32c0-.729-.591-1.3199-1.32-1.3199h-16.9256c-2.2359 0-2.7868-3.1104-.687-3.8783l2.2858-.836c.8353-.3055 1.0758-1.372.4524-2.0064-.3356-.3415-.8395-.4558-1.2896-.2926l-11.984 4.3457c-3.92087 1.4218-6.532 5.1462-6.532 9.3168 0 5.4734 4.4371 9.9105 9.9105 9.9105h11.0635c.5522 0 .9999-.4477.9999-1v-.6399c0-.5523-.4477-1-1-1h-3.7359v-2h7.1068c.5523 0 1-.4478 1-1v-.64c0-.5522-.4477-1-1-1h-4.827v-2h5.5828c.5523 0 1-.4477 1-1v-.6399c0-.5523-.4477-1-1-1h-5.5828v-2h10.485c-.0019-.0265-.0028-.0532-.0028-.0801 0-.8284.8954-1.5 2-1.5s2 .6716 2 1.5c0 .0269-.0009.0536-.0028.0801h.6828c.729 0 1.32-.591 1.32-1.32z" fill-rule="evenodd"/><path d="m41.0033 30.1404c0 1.6-1.32 2.8572-3 2.8572s-3-1.2572-3-2.8572 3-5.1428 3-5.1428 3 3.6571 3 5.1428z"/></g></svg>

<svg width="48" height="48" viewBox="0 0 48 48" fill="none" xmlns="http://www.w3.org/2000/svg">
<path fill-rule="evenodd" clip-rule="evenodd" d="M33.9299 24.0801H40.68C42.5136 24.0801 44 22.5937 44 20.7601C44 18.9266 42.5136 17.4402 40.68 17.4402H23.7544L26.0402 16.6042C28.2411 15.7993 28.8747 12.9892 27.2321 11.3177C26.3479 10.4179 25.0201 10.1166 23.8342 10.5467L11.8501 14.8924C7.13807 16.6011 4 21.0771 4 26.0894C4 32.6674 9.3325 37.9999 15.9105 37.9999H26.974C28.6308 37.9999 29.974 36.6568 29.974 34.9999V34.36C29.974 34.0093 29.9138 33.6727 29.8032 33.36H30.3448C32.0016 33.36 33.3448 32.0168 33.3448 30.36V29.72C33.3448 29.1357 33.1777 28.5903 32.8887 28.1292C33.6241 27.5824 34.1006 26.7069 34.1006 25.72V25.0801C34.1006 24.7295 34.0404 24.3929 33.9299 24.0801ZM42 20.7601C42 20.0311 41.409 19.4402 40.68 19.4402H23.7544C21.5185 19.4402 20.9676 16.3298 23.0674 15.5619L25.3532 14.7259C26.1885 14.4204 26.429 13.3539 25.8056 12.7195C25.47 12.378 24.9661 12.2637 24.516 12.4269L12.532 16.7726C8.61113 18.1944 6 21.9188 6 26.0894C6 31.5628 10.4371 35.9999 15.9105 35.9999H26.974C27.5262 35.9999 27.9739 35.5522 27.9739 34.9999V34.36C27.9739 33.8077 27.5262 33.36 26.9739 33.36H23.238V31.36H30.3448C30.8971 31.36 31.3448 30.9122 31.3448 30.36V29.72C31.3448 29.1678 30.8971 28.72 30.3448 28.72H25.5178V26.72H31.1006C31.6529 26.72 32.1006 26.2723 32.1006 25.72V25.0801C32.1006 24.5278 31.6529 24.0801 31.1006 24.0801H25.5178V22.0801H36.0028C36.0009 22.0536 36 22.0269 36 22C36 21.1716 36.8954 20.5 38 20.5C39.1046 20.5 40 21.1716 40 22C40 22.0269 39.9991 22.0536 39.9972 22.0801H40.68C41.409 22.0801 42 21.4891 42 20.7601Z" fill="#333333"/>
<path d="M41.0033 30.1404C41.0033 31.7404 39.6833 32.9976 38.0033 32.9976C36.3233 32.9976 35.0033 31.7404 35.0033 30.1404C35.0033 28.5404 38.0033 24.9976 38.0033 24.9976C38.0033 24.9976 41.0033 28.6547 41.0033 30.1404Z" fill="#333333"/>
</svg>
